assets/icons/onnx.svg

<svg width="16" height="16" viewBox="0 0 16 16" fill="none" xmlns="http://www.w3.org/2000/svg">
<path fill-rule="evenodd" clip-rule="evenodd" d="M8.01891 8.01891L7.24717 12.8918L12.1201 13.6635L8.01891 8.01891Z" fill="#40C4FF"/>
<path fill-rule="evenodd" clip-rule="evenodd" d="M8.01891 8.01891L3.14601 8.79064L3.91775 13.6635L8.01891 8.01891Z" fill="#40C4FF"/>
<path fill-rule="evenodd" clip-rule="evenodd" d="M8.01891 8.01891L5.77903 3.62306L1.38319 5.8628L8.01891 8.01891Z" fill="#40C4FF"/>
<path fill-rule="evenodd" clip-rule="evenodd" d="M8.01891 8.01891L11.5076 4.53024L8.01891 1.04172V8.01891Z" fill="#40C4FF"/>
<path fill-rule="evenodd" clip-rule="evenodd" d="M8.01891 8.01891L12.4148 10.2588L14.6546 5.8628L8.01891 8.01891Z" fill="#40C4FF"/>
</svg>

<svg xmlns="http://www.w3.org/2000/svg" fill="none" viewBox="0 0 16 16"><path fill="#40c4ff" fill-rule="evenodd" d="m8.019 8.019-.772 4.873 4.873.772zm0 0-4.873.772.772 4.873zm0 0-2.24-4.396-4.396 2.24zm0 0 3.489-3.489-3.49-3.488zm0 0 4.396 2.24 2.24-4.396z" clip-rule="evenodd"/></svg>
